X:6
T:Handsome Molly
C:Traditional
N: Transcribed by Mike Bunting and Mike Stangeland
R:bluegrass
L:1/8
Q:1/4=213
M:4/4
K:G
GE |: "G"D2 D2 D2 E2 | G4 G2 E2 | D2 DD E2 G2 | "D"A6 G2 | 
A2 A2 Bd z2 | A4 B2 A2 | "C"G2 ED z2 E2 | "G"D6 [g2^c2] | d2 [g2d2] [g2d2] g2 | 
g3a g2 ge | [g2d2] [g2d2] gg z2 | [a6d6] [a^c]d | z2 [ad][ad] [b2d2] [b2d2] | 
[a4d4] [b3d3]g | g2 ge d2 g2 | [g6d6] GE | D2 DD D2 E2 | G2 GG G2 GE | 
D2 DD E2 G2 | A2 AB A2 AA | AG AA B2 d2 | B2 BB Bd BA | "C"GG GE DG2E | "G"G2 GG G4 | 
{C}D2 DD ED EF | GF GA G2 EE | DC DD E2 G2 | "D"{G}AG AB A2 AA | AG AA BA Bd | 
Bd BA G4 | "C"GF GA GE DE |1 G6 GE|2 G8 :| 

